X: 43005
T: Willow Tree, The
R: hornpipe
M: 4/4
K: Gmajor
|:(3DEF|G>DG>B d>GB>d|g>db>g d>BG>D|E>Gc>e D>GB>d|c>AF>A D>AF>A|
G>DG>B d>GB>d|g>db>g d>BG>D|E>Gc>e D>GB>d|c>AF>D G2:|
|:d2|e>dc>A F>AD>F|G>AB>c d3G|E>Gc>e D>GB>d|A>d^c>e d>c=c>A|
e>dc>A F>AD>F|G>AB>c d3G|E>Gc>e D>GB>d|(3fed (3cBA G2:|

